X: 45
T: Josefin's Dopvals
T: Josefin's Baptism / Christening Waltz
T: Josefin's Waltz
C: Roger Talroth
S: Vsen
O: Swedish
M: 3/4
L: 1/8
R: Vals
R: waltz
K: F Major
C2 F2 G2 | A2 c2 B2 | A2 G2 F2 | C4 D2 | B,3 B, B,2 | D2 F2 E2 | D6 | C6 | 
C2 F2 G2 | A2 c2 B2 | A2 G2 F2 | C4 D2 | B,3 B, B,2 | C2 E2 F2 | G6- |[1 G6 :|[2 G2 ||
|: A2 B2 |\ 
c2 A2 c2 | f4 e2 | d6 | c6 | B2 d2 c2 | B2 A2 G2 | A3 B A2 | G2 A2 B2 |
c2 A2 c2 | f4 e2 | d6 | c6 | B2 d2 c2 | B2 A2 G2 | A3 B A2 | G2 A2 B2 |
A2 G2 F2 | E4 F2 | F6 | B,2 C2 B,2 | A,2 C2 F2 | E3 D E2 | F6- |[1 F2 :|[2 F6 |]
K: G Major (transposed from the above take in F Major)
D2 G2 A2 | B2 d2 c2 | B2 A2 G2 | D4 E2 | C3 C C2 | E2 G2 F2 | E6 | D6 |
D2 G2 A2 | B2 d2 c2 | B2 A2 G2 | D4 E2 | C3 C C2 | D2 F2 G2 | A6- |[1 A6 :|[2 A2 ||
|: B2 c2 |\
d2 B2 d2 | g4 f2 | e6 | d6 | c2 e2 d2 | c2 G2 A2 | B3 c B2 | A2 B2 c2 |
d2 B2 d2 | g4 f2 | e6 | d6 | c2 e2 d2 | c2 G2 A2 | B3 c B2 | A2 B2 c2 |
B2 A2 G2 |F4 G2 | G6 | C2 D2 C2 | B,2 D2 G2 | F3 E F2 | G6- |[1 G2 :|[2 G6 |]
